X: 26
T: Tam Lin
C: Davey Arthur
Z: benhockenberry
S: https://thesession.org/tunes/248#setting49743
R: reel
M: 4/4
L: 1/8
K: Dmin
[M:7/8][K:Bbm]|:"Bbm"F2BF dFB|"Gb"G2BG dGB|"Ab"A2cA eAc|"Bbm"dcBA FBA|
"Bbm"F2BF dFB|"Gb"G2BG dGB|"Ab"A2cA eAc|"Bbm"dcBA FBB:|
|:"Bbm"bf~f2 dfB|bf~f2 dfB|"Ab"ae~e2 cee|ae~e2 abc'|
"Bbm"bf~f2 dfB|bf~f2 dfB|"Ebm"~G3F GAB|"Fm"dBcA "Bbm"FBB:|

